src/assets/icons/pro-items-empty-state.svg

<?xml version="1.0" encoding="UTF-8"?>
<svg width="1181px" height="88px" viewBox="0 0 1181 88" version="1.1" xmlns="http://www.w3.org/2000/svg" xmlns:xlink="http://www.w3.org/1999/xlink">
    <!-- Generator: Sketch 49.3 (51167) - http://www.bohemiancoding.com/sketch -->
    <title>empty-normal</title>
    <desc>Created with Sketch.</desc>
    <defs></defs>
    <g id="Page-1" stroke="none" stroke-width="1" fill="none" fill-rule="evenodd">
        <g id="empty-normal" transform="translate(2.000000, 1.000000)">
            <path d="M10.152,0.612 L1167.153,0.612 C1172.676,0.612 1177.153,5.089 1177.153,10.612 L1177.153,75.497 C1177.153,81.02 1172.676,85.497 1167.153,85.497 L10.153,85.497 C4.629,85.497 0.153,81.02 0.153,75.497 L0.153,10.613 C0.153,5.09 4.629,0.613 10.153,0.613 L10.152,0.612 Z" id="Shape" fill="#FFFFFF" fill-rule="nonzero"></path>
            <rect id="Rectangle-path" fill="#ECEFF1" fill-rule="nonzero" opacity="0.506963315" x="6.668" y="7.023" width="72" height="72" rx="10"></rect>
            <path d="M10.152,0.612 L1167.153,0.612 C1172.676,0.612 1177.153,5.089 1177.153,10.612 L1177.153,75.497 C1177.153,81.02 1172.676,85.497 1167.153,85.497 L10.153,85.497 C4.629,85.497 0.153,81.02 0.153,75.497 L0.153,10.613 C0.153,5.09 4.629,0.613 10.153,0.613 L10.152,0.612 Z" id="Shape" stroke="#ECEFF1" stroke-width="3" opacity="0.5" stroke-linecap="round" stroke-dasharray="7"></path>
            <rect id="Rectangle-path" fill="#ECEFF1" fill-rule="nonzero" opacity="0.413111413" x="1109.668" y="23.023" width="40" height="40" rx="8"></rect>
            <rect id="Rectangle-path" fill="#ECEFF1" fill-rule="nonzero" opacity="0.413111413" x="1009.668" y="23.023" width="40" height="40" rx="8"></rect>
            <rect id="Rectangle-path" fill="#ECEFF1" fill-rule="nonzero" opacity="0.413111413" x="1059.668" y="23.023" width="40" height="40" rx="8"></rect>
            <rect id="Rectangle-path" fill="#ECEFF1" fill-rule="nonzero" opacity="0.413111413" x="932" y="28" width="30" height="30" rx="15"></rect>
            <rect id="Rectangle-path-Copy" fill="#ECEFF1" fill-rule="nonzero" opacity="0.413111413" x="886" y="28" width="30" height="30" rx="15"></rect>
            <rect id="Rectangle-path-Copy-2" fill="#ECEFF1" fill-rule="nonzero" opacity="0.413111413" x="840" y="28" width="30" height="30" rx="15"></rect>
            <rect id="Rectangle-path" fill="#ECEFF1" fill-rule="nonzero" opacity="0.413111413" x="104.668" y="35.023" width="74" height="16" rx="4"></rect>
            <path d="M198,35 L336.143,35 C338.352139,35 340.143,36.790861 340.143,39 L340.143,47 C340.143,49.209139 338.352139,51 336.143,51 L198,51 C195.790861,51 194,49.209139 194,47 L194,39 C194,36.790861 195.790861,35 198,35 Z" id="Shape" fill="#ECEFF1" fill-rule="nonzero" opacity="0.413111413"></path>
            <path d="M412,35 L550.143,35 C552.352139,35 554.143,36.790861 554.143,39 L554.143,47 C554.143,49.209139 552.352139,51 550.143,51 L412,51 C409.790861,51 408,49.209139 408,47 L408,39 C408,36.790861 409.790861,35 412,35 Z" id="Shape-Copy" fill="#ECEFF1" fill-rule="nonzero" opacity="0.413111413"></path>
            <path d="M594,35 L732.143,35 C734.352139,35 736.143,36.790861 736.143,39 L736.143,47 C736.143,49.209139 734.352139,51 732.143,51 L594,51 C591.790861,51 590,49.209139 590,47 L590,39 C590,36.790861 591.790861,35 594,35 Z" id="Shape-Copy-2" fill="#ECEFF1" fill-rule="nonzero" opacity="0.413111413"></path>
        </g>
    </g>
</svg>

<svg width="1181" height="88" viewBox="0 0 1181 88" xmlns="http://www.w3.org/2000/svg"><g transform="translate(2 1)" fill="none" fill-rule="evenodd"><path d="M10.152.612h1157.001c5.523 0 10 4.477 10 10v64.885c0 5.523-4.477 10-10 10h-1157c-5.524 0-10-4.477-10-10V10.613c0-5.523 4.476-10 10-10l-.001-.001z" fill="#FFF" fill-rule="nonzero"/><rect fill="#ECEFF1" fill-rule="nonzero" opacity=".507" x="6.668" y="7.023" width="72" height="72" rx="10"/><path d="M10.152.612h1157.001c5.523 0 10 4.477 10 10v64.885c0 5.523-4.477 10-10 10h-1157c-5.524 0-10-4.477-10-10V10.613c0-5.523 4.476-10 10-10l-.001-.001z" stroke="#ECEFF1" stroke-width="3" opacity=".5" stroke-linecap="round" stroke-dasharray="7"/><rect fill="#ECEFF1" fill-rule="nonzero" opacity=".413" x="1109.668" y="23.023" width="40" height="40" rx="8"/><rect fill="#ECEFF1" fill-rule="nonzero" opacity=".413" x="1009.668" y="23.023" width="40" height="40" rx="8"/><rect fill="#ECEFF1" fill-rule="nonzero" opacity=".413" x="1059.668" y="23.023" width="40" height="40" rx="8"/><rect fill="#ECEFF1" fill-rule="nonzero" opacity=".413" x="932" y="28" width="30" height="30" rx="15"/><rect fill="#ECEFF1" fill-rule="nonzero" opacity=".413" x="886" y="28" width="30" height="30" rx="15"/><rect fill="#ECEFF1" fill-rule="nonzero" opacity=".413" x="840" y="28" width="30" height="30" rx="15"/><rect fill="#ECEFF1" fill-rule="nonzero" opacity=".413" x="104.668" y="35.023" width="74" height="16" rx="4"/><path d="M198 35h138.143a4 4 0 0 1 4 4v8a4 4 0 0 1-4 4H198a4 4 0 0 1-4-4v-8a4 4 0 0 1 4-4z" fill="#ECEFF1" fill-rule="nonzero" opacity=".413"/><path d="M412 35h138.143a4 4 0 0 1 4 4v8a4 4 0 0 1-4 4H412a4 4 0 0 1-4-4v-8a4 4 0 0 1 4-4z" fill="#ECEFF1" fill-rule="nonzero" opacity=".413"/><path d="M594 35h138.143a4 4 0 0 1 4 4v8a4 4 0 0 1-4 4H594a4 4 0 0 1-4-4v-8a4 4 0 0 1 4-4z" fill="#ECEFF1" fill-rule="nonzero" opacity=".413"/></g></svg>
